X:444
T:Miss Barbara Bain of New Deer 
C:Joe Buchanan's Scottish Tome - Page 006.2
I:006 2
C:Lindsay Ross
R:March
Z:Carl Allison
L:1/16
M:2/4
K:D
fe |"D" d4 A2d2 |"D" FAdf a2gf | "Em"g2B2 gfed | "A"cAce agfe |
"D"d4 A2d2 | "D"FAdf a2gf | "Em"g2B2 "A7"fedc |"D" d4 d4 :|
(de) |"Bm" f2B2 Bcde | "Bm"fBdf bfdB | "A"e2A2 ABcd |"A" eAce aecA |
"Bm"f2B2 Bcde |"Bm" fBdf bfdB |"A" c2A2 "F#m"fedc |"Bm" B4 B2 (de) |
"Bm"f2B2 Bcde | "Bm"fBdf bfdB |"A" e2A2 ABcd |"A" eAce aecA |
"D"d4 A2d2 |"D" FAdf a2gf |"Em" g2B2 "A7"fedc |"D" d4 d4 :|

